assets/img/icons/pay-card.svg

<svg width="24" height="23" viewBox="0 0 24 23" fill="none" xmlns="http://www.w3.org/2000/svg">
<g clip-path="url(#clip0_364_1303)">
<path d="M18.094 1.6177C17.0252 1.79498 15.1174 2.11407 13.8518 2.32236C4.4674 3.8735 4.15803 3.92668 3.90021 4.05077C3.4174 4.28123 3.07521 4.67123 2.9299 5.15872C2.83615 5.46452 2.85021 5.86782 2.97678 6.50157L3.05646 6.91373L10.4721 6.92702C17.4658 6.93588 17.8971 6.94475 18.1643 7.02009C19.0502 7.2727 19.8283 7.88429 20.2174 8.64213C20.5737 9.3335 20.5783 9.37782 20.5783 12.2984C20.5783 14.5276 20.5877 14.8467 20.6487 14.8467C20.8502 14.8467 22.6455 14.5187 22.8612 14.439C23.2221 14.3104 23.6674 13.9116 23.8408 13.5526C24.1033 13.0075 24.1174 13.1005 23.1377 7.84441C22.6549 5.27395 22.2283 3.00929 22.1908 2.81429C22.0549 2.16282 21.6705 1.67532 21.1033 1.42713C20.6299 1.22327 20.3299 1.241 18.094 1.6177Z" fill="white"/>
<path d="M1.36871 8.27023C0.674963 8.44308 0.0749634 9.08569 0.00933838 9.71501L-0.0140991 9.92773H9.60934H19.2281L19.1953 9.71501C19.125 9.22308 18.6937 8.64251 18.2437 8.42535C17.7562 8.19046 18.1406 8.19933 9.56246 8.20376C2.82653 8.20376 1.57965 8.21262 1.36871 8.27023Z" fill="white"/>
<path d="M0 12.7415V14.2705H9.60938H19.2188V12.7415V11.2126H9.60938H0V12.7415Z" fill="white"/>
<path d="M0.00916443 17.8472L0.0232269 20.1429L0.159164 20.4088C0.337289 20.75 0.69354 21.0869 1.05448 21.2553L1.33573 21.3838H9.58573H17.8357L18.1404 21.2464C18.4685 21.0957 18.7873 20.8254 18.9607 20.5417C19.2045 20.1517 19.2185 20.0055 19.2185 17.6965V15.5559H9.60917H-0.00489807L0.00916443 17.8472ZM5.89667 18.5917C6.34667 18.8488 6.34667 19.4427 5.89667 19.6997C5.75135 19.7839 5.6576 19.7883 3.98416 19.7883C2.31073 19.7883 2.21698 19.7839 2.07166 19.6997C1.53729 19.3939 1.65916 18.6627 2.26854 18.5208C2.34823 18.5031 3.16385 18.4898 4.07792 18.4942C5.65292 18.5031 5.75135 18.5075 5.89667 18.5917Z" fill="white"/>
</g>
<defs>
<clipPath id="clip0_364_1303">
<rect width="24" height="22.6909" fill="white"/>
</clipPath>
</defs>
</svg>

<svg width="24" height="23" fill="none" xmlns="http://www.w3.org/2000/svg"><g clip-path="url(#a)" fill="#fff"><path d="M18.094 1.618c-1.069.177-2.977.496-4.242.704C4.467 3.873 4.158 3.927 3.9 4.051c-.483.23-.825.62-.97 1.108-.094.306-.08.709.047 1.343l.08.412 7.415.013c6.994.009 7.425.018 7.692.093.886.253 1.664.864 2.053 1.622.357.692.361.736.361 3.656 0 2.23.01 2.549.07 2.549.202 0 1.997-.328 2.213-.408.361-.129.806-.527.98-.886.262-.546.276-.453-.703-5.709l-.947-5.03c-.136-.651-.52-1.139-1.088-1.387-.473-.204-.773-.186-3.009.19Z"/><path d="M1.369 8.27c-.694.173-1.294.816-1.36 1.445l-.023.213h19.243l-.034-.213c-.07-.492-.501-1.072-.951-1.29-.488-.235-.103-.226-8.682-.221-6.735 0-7.982.009-8.193.066ZM0 12.742v1.528h19.219v-3.058H0v1.53Zm.01 5.105.013 2.296.136.266c.178.341.535.678.895.846l.282.129h16.5l.304-.138a1.97 1.97 0 0 0 .82-.704c.244-.39.258-.537.258-2.846v-2.14H-.005l.014 2.291Zm5.887.745c.45.257.45.85 0 1.108-.146.084-.24.088-1.913.088s-1.767-.004-1.912-.088c-.535-.306-.413-1.037.197-1.18.08-.017.895-.03 1.809-.026 1.575.01 1.673.014 1.819.098Z"/></g><defs><clipPath id="a"><path fill="#fff" d="M0 0h24v22.691H0z"/></clipPath></defs></svg>
